X:1
T:Reverie
T:Reverie
T:from No. 5 from Petite Suite
T:Alexander Borodin
T:Piece is Public Domain - this piano arrangement of String Quartet may not be
T:Piece is Public Domain - this piano arrangement of String Quartet may not be
C:Alexander Borodin
Z:Piece is Public Domain - this piano arrangement of String Quartet may not be
%%score { ( 1 3 ) | ( 2 4 ) }
L:1/8
Q:1/4=75
M:4/4
K:Db
V:1 treble nm="Piano" snm="Pno."
V:3 treble 
V:2 bass 
V:4 bass 
V:1
"_sempre dolce expressivo"!p!"^Andante"!>(! ([GBd]2 D2)!>)!!>(! ([GBd]2 D2-)!>)! | %1
!<(! [GBd]2 [Gce]2!<)! !arpeggio!!fermata![FAdf]4 | (B2 __B2 A2 e2 | B2) c3/2d/4c/4 [G_B]2 [=DA]2 | %4
 (G2 B2) (A2 GF) | ([DE]4 [CA]4) | (A2 f2 e2({de)} dc) | (B2 F2) (G2 F2) | (EF G2) [EF]4 | [=DF]8 | %10
 (_c2({Bc)} BA Be _d=c) | (B2 __B2 _A2 d2) | (_c2{_Bc} B=A (3Be__e (3d=c_c) | (B2 __B2 _A2 f2) | %14
"_cresc." e2({de)} dc _B2 F2 | !>![F=A]4!mf! !>!B2 z (=D | E=D E2- E)=D EF | %17
"_dim." (!>![DG]2 [CF]2 [A,D]4) |!p!!>(! [EG]4 [DF]4!>)! | [EG]4 [DF]4 | %20
!>(! [_B,E]4!>)!!>(! [B,E]4!>)! | (F2 C2 [A,CF]4) |!p!!>(! ([GBd]2 D2)!>)!!>(! ([GBd]2 D2-)!>)! | %23
!<(! [G-Bd]2 [Gce]2!<)! !arpeggio!!fermata![FAdf]4 | %24
!pp![I:staff +1]{!fermata!F,!fermata!D!fermata!F[I:staff -1]!fermata!A!fermata!d} !fermata!a8 |] %25
V:2
!ped! ([G,B,E]2 D,2) ([G,B,E]2 D,2-)!ped-up! | %1
 (B,2 __B,2)!ped! !arpeggio!!fermata![D,A,D]4!ped-up! |!ped! [D,E,G,]2 D2 (C4!ped-up! | %3
 D2) (D4 [F,B,]2) | (B,2 G,2) A,4 | (G,,4 A,,4) | (F,2 A,2 =A,4 | B,4) (E,2 F,2) | %8
 (G,F, E,2) F,2 F,,2 | B,,,6 B,,2 | (=D4 E4) | (C4 D4) | (=D4 E4) | =C4 (D2 A,2) | (=A,4 _B,4) | %15
 _C4 [D,E,G,]2 [D,D]2- | [D,D]2 !>![_D,_D]4 !>![D,D]2 | (B,2 A,G, F,4) | z2 A,,,4 A,,,2- | %19
 A,,,2 A,,,4 A,,,2- | A,,,2 A,,,4 A,,,2- | A,,,2 (A,,,2 D,,4) | ([G,B,E]2 D,2) ([G,B,E]2 D,2-) | %23
 (B,2 __B,2)!ped! !arpeggio!!fermata![D,A,D]4 | !fermata!D,,8!ped-up! |] %25
V:3
 x8 | D4 x4 |[I:staff +1]({G,,(D,)(E,)(G,)[I:staff -1]B,-)D-E-} [B,DE]2 z2 A4- | A2 A2 x2 =D2 | %4
 (E2 C2) _D4 | (B,2 __B,2[I:staff +1] A,2 G,2) |[I:staff -1] D2 F2 G4 | F2 z2 B,4 | (B,6 =A,2) | %9
 =D2 _C2 B,4 | [FA]4 G4 | [EG]4 F4 | [FA]4 G4 | [_EG]4 F4 | G4 F2 F2 | %15
 (F2 D2)[I:staff +1]({G,,(D,)(E,)(G,)[I:staff -1]B,-)D-E-} [B,DE]2 x2 | x8 | x8 | %18
 (B,=A,B,__B,) (_A,=G, A,2) | (B,=A,!>(!B,__B,) (_A,=G, A,2)!>)! | (=G,_G, =G,2) (_G,F, G,2) | %21
 [G,B,]4 x4 | x8 | D4 x4 | x8 |] %25
V:4
 x8 | D,6 !fermata!D,,2 | G,,2 z2 C2 G,2 | F,4 G,2 z2 | E,4 (F,2 _D,2) | x8 | D,6 D,2- | %7
 D,2 (D,2 E,2 D,2) | C,4 x4 | x8 | z2 _D,4 D,2- | D,2 D,4 D,2- | D,2 D,4 D,2- | D,2 D,6- | %14
 D,2 D,4 D,2- | D,2 D,2 G,,2 x2 | B,,4 __B,,4 | A,,6 A,,2 | x8 | x8 | x8 | x8 | x8 | %23
 D,6 !fermata!D,,2- | x8 |] %25

